src/icons/walletIcon.svg

<svg width="19" height="18" viewBox="0 0 19 18" fill="none" xmlns="http://www.w3.org/2000/svg">
  <path
    d="M13 10.4998C13.4333 10.4998 13.7917 10.3581 14.075 10.0748C14.3583 9.79142 14.5 9.43309 14.5 8.99976C14.5 8.56642 14.3583 8.20809 14.075 7.92476C13.7917 7.64142 13.4333 7.49976 13 7.49976C12.5667 7.49976 12.2083 7.64142 11.925 7.92476C11.6417 8.20809 11.5 8.56642 11.5 8.99976C11.5 9.43309 11.6417 9.79142 11.925 10.0748C12.2083 10.3581 12.5667 10.4998 13 10.4998ZM10 13.9998C9.45 13.9998 8.97933 13.8041 8.588 13.4128C8.196 13.0208 8 12.5498 8 11.9998V5.99976C8 5.44976 8.196 4.97876 8.588 4.58676C8.97933 4.19542 9.45 3.99976 10 3.99976H17C17.55 3.99976 18.021 4.19542 18.413 4.58676C18.8043 4.97876 19 5.44976 19 5.99976V11.9998C19 12.5498 18.8043 13.0208 18.413 13.4128C18.021 13.8041 17.55 13.9998 17 13.9998H10ZM2 17.9998C1.45 17.9998 0.979 17.8041 0.587 17.4128C0.195667 17.0208 0 16.5498 0 15.9998V1.99976C0 1.44976 0.195667 0.978756 0.587 0.586756C0.979 0.195422 1.45 -0.000244141 2 -0.000244141H16C16.55 -0.000244141 17.021 0.195422 17.413 0.586756C17.8043 0.978756 18 1.44976 18 1.99976H10C8.81667 1.99976 7.85433 2.37042 7.113 3.11176C6.371 3.85376 6 4.81642 6 5.99976V11.9998C6 13.1831 6.371 14.1454 7.113 14.8868C7.85433 15.6288 8.81667 15.9998 10 15.9998H18C18 16.5498 17.8043 17.0208 17.413 17.4128C17.021 17.8041 16.55 17.9998 16 17.9998H2Z"
    fill="white"
  />
</svg>

<svg
  xmlns="http://www.w3.org/2000/svg"
  width="19"
  height="18"
  fill="none"
  xmlns:v="https://vecta.io/nano"
>
  <path
    d="M13 10.5c.433 0 .792-.142 1.075-.425S14.5 9.433 14.5 9s-.142-.792-.425-1.075S13.433 7.5 13 7.5s-.792.142-1.075.425S11.5 8.566 11.5 9s.142.792.425 1.075.642.425 1.075.425zM10 14c-.55 0-1.021-.196-1.412-.587S8 12.55 8 12V6c0-.55.196-1.021.588-1.413S9.45 4 10 4h7c.55 0 1.021.196 1.413.587S19 5.45 19 6v6c0 .55-.196 1.021-.587 1.413S17.55 14 17 14h-7zm-8 4c-.55 0-1.021-.196-1.413-.587S0 16.55 0 16V2C0 1.45.196.979.587.587S1.45 0 2 0h14c.55 0 1.021.196 1.413.587S18 1.45 18 2h-8c-1.183 0-2.146.371-2.887 1.112S6 4.816 6 6v6c0 1.183.371 2.146 1.113 2.887S8.817 16 10 16h8c0 .55-.196 1.021-.587 1.413S16.55 18 16 18H2z"
    fill="#fff"
  />
</svg>
